!!!SOCIAL_FUNCTION:	war songs
!!!PDT:	1929
!!!OTL: No_141_Song_Concerning_a_Wounded_Apache.krn
!!!REG: Southwest
!!!LANG: Non-Tone
!!!LING_GROUP: Uto-Aztecan
**kern
*staff1
*clefF4
*k[b-e-]
*M2/4
4F\
=1
4c\
8.c\L
16B-\Jk
=2
4G\
4F\
=3
8.G\L
16F\Jk
8G\L
8G\J
=4
8F\L
8F\J
8.c\L
16B-\Jk
=5
4c\
8c\L
16B-\L
16B-\JJ
=6
4G\
8F\L
8E-\J
=7||
*M3/4
8E-/L
16C/Jk
16r
8E-\L
16E-\L
16E-\JJ
8C/L
16C/Jk
16r
=8
4F\
8.G\L
16F\Jk
4F\
=9
4.G\
8F\
8E-\L
8G\J
=10||
*M2/4
2F\
=11
4F\
4F\
=12
2F\
==
*-
